src/main/resources/icons/SeleniumSharedIcons/icons/gutter/issue.svg

<svg width="12" height="12" viewBox="0 0 12 12" fill="none" xmlns="http://www.w3.org/2000/svg"><rect id="frame" width="12" height="12" fill="none"/><path fill-rule="evenodd" clip-rule="evenodd" d="M1 2h10v7H1V2zm1 2h3v3H2V4zm5 0h3v1H7V4zm0 2h3v1H7V6z" fill="#6E6E6E"/></svg>

<svg width="12" height="12" viewBox="0 0 12 12" fill="none" xmlns="http://www.w3.org/2000/svg">
<path fill-rule="evenodd" clip-rule="evenodd" d="M1 2H11V9H1V2ZM2 4H5V7H2V4ZM7 4H10V5H7V4ZM7 6H10V7H7V6Z" fill="#6E6E6E"/>
</svg>
